Unicodia/Resources/Scripts/10E60.svg

<?xml version="1.0" encoding="UTF-8" standalone="no"?>
<!-- Created with Inkscape (http://www.inkscape.org/) -->

<svg
   width="16"
   height="16"
   viewBox="0 0 16 16"
   version="1.1"
   id="svg5"
   inkscape:version="1.2.2 (732a01da63, 2022-12-09)"
   sodipodi:docname="10E60.svg"
   inkscape:export-filename="..\0000.png"
   inkscape:export-xdpi="96"
   inkscape:export-ydpi="96"
   xml:space="preserve"
   xmlns:inkscape="http://www.inkscape.org/namespaces/inkscape"
   xmlns:sodipodi="http://sodipodi.sourceforge.net/DTD/sodipodi-0.dtd"
   xmlns="http://www.w3.org/2000/svg"
   xmlns:svg="http://www.w3.org/2000/svg"><sodipodi:namedview
     id="namedview7"
     pagecolor="#ffffff"
     bordercolor="#666666"
     borderopacity="1.0"
     inkscape:pageshadow="2"
     inkscape:pageopacity="0"
     inkscape:pagecheckerboard="0"
     inkscape:document-units="px"
     showgrid="true"
     width="16mm"
     units="px"
     inkscape:zoom="33.322407"
     inkscape:cx="-2.5058214"
     inkscape:cy="7.35241"
     inkscape:window-width="1680"
     inkscape:window-height="998"
     inkscape:window-x="-8"
     inkscape:window-y="-8"
     inkscape:window-maximized="1"
     inkscape:current-layer="layer1"
     showguides="true"
     inkscape:guide-bbox="true"
     inkscape:snap-bbox="true"
     inkscape:bbox-paths="true"
     inkscape:bbox-nodes="true"
     inkscape:snap-global="true"
     inkscape:showpageshadow="2"
     inkscape:deskcolor="#ffffff"><inkscape:grid
       type="xygrid"
       id="grid828"
       originx="0"
       originy="0" /></sodipodi:namedview><defs
     id="defs2" /><g
     inkscape:label="Layer 1"
     inkscape:groupmode="layer"
     id="layer1"><rect
       style="opacity:1;fill:#f5deb3;stroke:none;stroke-width:4.4376;stroke-linejoin:bevel;stop-color:#000000;fill-opacity:1"
       id="rect691"
       width="16"
       height="16"
       x="0"
       y="0" /><path
       d="M 9.2905857,5.3956345 C 9.8876718,5.3013489 12.111959,4.8662168 13.530695,3.4474763 L 14.848567,4.5361529 7.8963164,14.792633 6.4638471,13.837654 11.697135,6.1214189 C 10.489981,6.7126849 9.2766239,7.0075176 8.1255114,7.1145976 L 3.1405183,14.410642 1.7080497,13.455662 6.1391539,7 C 5.6517591,6.8566599 4,6.2303649 4,4.3260576 4,3.205542 4.6239262,2.0277466 5.8717596,0.79263335 L 7.0750339,1.9959076 c -0.904041,0.9167802 -1.3560709,1.6935033 -1.3560709,2.33015 0,0.2980013 0.1470891,0.9776601 1.4515688,1.1459753 L 9.443383,2.1487043 10.856752,3.1036837 Z"
       id="path561"
       style="fill:#784421;fill-opacity:1;stroke-width:0.999999" /></g></svg>

<svg height="16" viewBox="0 0 16 16" width="16" xmlns="http://www.w3.org/2000/svg"><path d="m0 0h16v16h-16z" fill="#f5deb3"/><path d="m9.29 5.4c.6-.1 2.82-.53 4.24-1.95l1.32 1.09-6.95 10.25-1.44-.95 5.24-7.72c-1.21.59-2.42.89-3.57.99l-4.99 7.3-1.43-.95 4.43-6.46c-.49-.14-2.14-.77-2.14-2.67 0-1.12.62-2.3 1.87-3.54l1.21 1.21c-.9.92-1.36 1.69-1.36 2.33 0 .3.15.98 1.45 1.15l2.27-3.33 1.42.95z" fill="#784421"/></svg>
